X:1
T: Newmill Brig
T: Pitgaveny
C:William Macpherson
R:Strathspey
Q: 128
K:Eb
M:4/4
L:1/16
|:B,2|E3F E3G, B,E3 B4|F3G A3F DF3 B4|e3E B,3G, A,C3 F4|B3c B3A GE3 E2B,2|
E3F E3G, B,E3 B4|F3G A3F DF3 B4|e3E B,3G, A,C3 F4|B3c B3A GE3 E2((3B/c/d/)|
e3g eB3 GB3 eE3|A,3C =A,3F DF3 B3d|e3g =Bd3 ce3 =A3f1/2e1/2|dB3 F3=A B4 B,3D|
E3F E3G, B,E3 B4|F3G A3c df3 b4|e3_d cA3 =d3c BE3|F3B, DB3 eE3 E2:|
